!!!OTL-incipit: DA DROBEN AUF DEM BERGE
!!!ARE: Europa, Mitteleuropa, Deutschland, Sued - Deutschland
!!!SCT: Z0074A
!!!TXL: @@DE
!!!YEM: Copyright 1995, estate of Helmut Schaffrath.
**kern	**text
*ICvox	*
*M6/8	*
*k[f#]	*
*G:	*
!LO:TX:a:t=II. Theil.	!
{8d	Jch
=1	=1
4b/	mag
16a	dich
16g	nicht
8g	lie-
8f#	-ben
8d	ich
=2	=2
4cc	kann
16b/	dich
16a	nicht
(8a	lie-
8g)	.
8g}	-ben.
=3	=3
{4b/	Haſt'ne_Warʒ
16a	auf
16g	der
8g	Na-
8f#	-ſen,
8d	könnt'
=4	=4
4cc	auch
16b/	ei-
16a	-ne
(8a	krieg'n,
8g)	.
8g}	nur
=5	=5
{8g	daß
8b/	ich
8b/	dich
8dd	gar
8cc	nicht
8cc	mag,
=6	=6
8cc	das
8d	ſag
8f#	ich
8a	nicht,
8r}	.
{8f#	nur
=7	=7
8g	wenn
8b/	du'n
8b/	wen'g
8dd	ſchöner
8cc	.
8cc	wärſt,
=8	=8
8cc	ſchadt
8d	es
8f#	dir
8g	nicht.
8r}	.
{8d	Was
=9	=9
8d	machſt
8g	du,
8g	ſprach
8f#	Er;
8r	.
8f#	ich
=10	=10
8f#	ſpei-
8d	-ſe,
8f#	ſprach
8g	Sie;
8r	.
8d	laß
=11	=11
8d	ſe-
8g	-hen,
8g	ſprach
8f#	Er;
8r	.
8cc	da
=12	=12
8cc	ſiehſt
8d	du,
8f#	ſprach
8g	Sie;
8r}	.
{8d	's_iſt
=13	=13
(8d	heiß,
8g)	.
8g	ſprach
8f#	Er;
8r	.
8cc	mußt
=14	=14
8cc	bla-
8d	-ſen,
8f#	ſprach
8g	Sie;
8r}	.
{8d	ja
=15	=15
(8d	ja,
8g)	.
8g	ſprach
8f#	Er;
8r	.
8cc	Hm
=16	=16
(8cc	Hm,
8d)	.
8f#	ſprach
4g}	Sie.
==	==
!!!AGN: Sagen - Lied, Romanze
!! Zweiter Teil des Liedes Z0074
!!!ONB: ESAC (Essen Associative Code) Database: ZUCCAL
!!!AMT: compound duple
!!!AIN: vox
!!!EED: Helmut Schaffrath
!!!EEV: 1.0
!!!GTL: I. Ernste Romanzen und Sagen.
!!!URL-scan: https://www.digitale-sammlungen.de/de/view/bsb11160571?page=152
!!!ENC: Anna Maria Matuszewska
!!!EEV: 2025/01/24
*-	*-
